X:45
T:Polska efter Pelle Fors
R:sl-polska
H:jfr nr 78, andra delen jfr nr 38
A:\"Osterg\"otland
Z:id:hn-sp-45
M:3/4
L:1/16
K:D
A2d2 d2A2 FDFA|A2d2 d/e/dcd e6f2|g>(ag>)(f e>)(fe>)(d c>)(dc>)B|
A2d2 d2A2 FDFA|A2d2 d/e/dcd e6f2|gfga b2a2 agec|e2d2 d8:|
|:Td2c2 c2c2 e2c2|Tc2B2 B2B2 d2B2|TB2A2 A8|TA2G2 G2G2 B2G2|
TG2F2 F2F2 A2F2|TF2E2 E3F|GFGA B2A2 AGEC|E2D2 D8:|

